X: 10182
T: MY AIN KIND DEARIE
Q: "Moderately"
%R: air, march
B: "Edinburgh Repository of Music" v.1 p.18 #2
F: http://digital.nls.uk/special-collections-of-printed-music/pageturner.cfm?id=87776133
Z: 2015 John Chambers <jc:trillian.mit.edu>
M: 2/4
L: 1/16
K: D
f>e |\
{de}f2A2 A3B | d3e d3f | e3f (gf)(ed) | {de}f2B2 B2f>e |\
{de}f2A2 A2B2 | d3e d2d'a | b3a bc'd'a | f2d2 d2 :|
|: a2 |\
b>abc' d'3f | gfga b3f | e3f gfed | d/e/f B2B2 f>e |\
d/e/f A2A2B2 | d3ed2d'2a2 | b3a bc'd'a | f2d2d2 :|

%%sep 2 1 500
%%sep 1 1 500

